X:1
T:Title
%%score { ( 1 2 ) | ( 3 4 ) }
L:1/8
M:4/4
K:Db
V:1 treble nm="Grand Piano"
V:2 treble 
V:3 bass 
V:4 bass 
V:1
 z4 z2[Q:1/4=106] z E | F2 F2 [EG]2 [EG]2 | [FA]2 [FA]2 F2 F2 | G2 [EG]2 F2 D2 |[M:3/4] E6 | %5
[M:1/4] z E |[M:4/4] F2 F2 G2 G2 | A2 A2 B2 z E | F2 F2 [CE]2 [CE]2 |[M:3/4] D6 |[M:1/4] F[FA] | %11
[M:4/4] [Fd]2 [Fd][Fd] [Fd]2 [FA][FA] |[M:3/4] B2 Bd [FA]2 |[M:1/4] DE |[M:4/4] F2 D2 F2 A2 | %15
 E6 F[FA] |[M:3/4] [Fd]2 [Fd]2 [Fd]2 |[M:1/4] [FA][FA] |[M:4/4] [GB]2 [Gd]2 [FA]2 DE | %19
 z4[K:bass] z2 [CE]2 |[M:3/4] D6 |] %21
V:2
 z4 z2 D2 | x8 | x8 | x8 |[M:3/4] x6 |[M:1/4] D2 |[M:4/4] x8 | z4 z2 D2 | x8 |[M:3/4] x6 | %10
[M:1/4] x2 |[M:4/4] x8 |[M:3/4] x6 |[M:1/4] x2 |[M:4/4] x8 | x8 |[M:3/4] x6 |[M:1/4] x2 | %18
[M:4/4] x8 | F2[K:bass] D2 [DE]2 z G, |[M:3/4] x6 |] %21
V:3
 z4 z2 F,G, | [D,A,D]2 [D,A,D]2 [A,,A,]2 [A,,A,]2 | [D,A,]2 [D,A,]2 [D,A,D]2 [D,A,D]2 | %3
 [E,A,C]2 [A,,A,]2 [D,A,D]2 [F,A,]2 |[M:3/4] [A,C]6 |[M:1/4] F,G, | %6
[M:4/4] [D,A,D]2 [D,A,D]2 [E,A,C]2 [E,A,C]2 | [F,A,D]2 [F,A,D]2 [G,D]2 [G,B,]2 | %8
 [A,D]2 [A,D]2 [A,,A,]2 [A,,G,]2 |[M:3/4] [D,F,]6 |[M:1/4] [D,A,D][D,D] | %11
[M:4/4] [D,A,]2 [D,A,][D,A,] [D,A,]2 [D,D][D,D] |[M:3/4] [G,DG]2 [G,DG][G,B,G] [D,D]2 | %13
[M:1/4] [D,F,][D,G,D] |[M:4/4] [D,A,D]2 [D,F,]2 [D,A,D]2 [F,A,D]2 | [A,C]6 [D,A,D][D,D] | %16
[M:3/4] [D,A,]2 [D,A,]2 [D,A,]2 |[M:1/4] [D,D][D,D] |[M:4/4] [G,D]2 [G,B,]2 [D,D]2 [D,F,][D,G,D] | %19
 [D,A,D]2 [D,F,]2 [A,,A,]2 .[A,,A,]2 |[M:3/4] [D,F,]6 |] %21
V:4
 z4 z2 D,2 | x8 | x8 | x8 |[M:3/4] x6 |[M:1/4] D,2 |[M:4/4] x8 | x8 | x8 |[M:3/4] x6 |[M:1/4] x2 | %11
[M:4/4] x8 |[M:3/4] x6 |[M:1/4] x2 |[M:4/4] x8 | x8 |[M:3/4] x6 |[M:1/4] x2 |[M:4/4] x8 | x8 | %20
[M:3/4] x6 |] %21

